public/images/currencies/honeyswap/40.svg

<svg width="40" height="40" viewBox="0 0 40 40" fill="none" xmlns="http://www.w3.org/2000/svg">
<g clip-path="url(#clip0_451:49354)">
<circle cx="20" cy="20" r="20" fill="white"/>
<path d="M29.397 12.774L21.484 8.24283C21.021 7.9767 20.496 7.83747 19.962 7.83919C19.428 7.84091 18.9039 7.98353 18.4426 8.25264L10.5587 12.8384C10.0983 13.107 9.71634 13.4917 9.45083 13.9539C9.18533 14.4162 9.04554 14.9399 9.04541 15.473L9.07632 24.5952C9.07954 25.1293 9.22272 25.6533 9.49159 26.1149C9.76046 26.5765 10.1456 26.9595 10.6087 27.2258L18.5194 31.7557C18.9826 32.0222 19.5079 32.1618 20.0424 32.1603C20.5768 32.1588 21.1014 32.0162 21.563 31.7471L29.4493 27.16C29.9083 26.8893 30.2886 26.5033 30.5526 26.0405C30.8167 25.5776 30.9553 25.0537 30.9548 24.5208L30.9237 15.3988C30.9199 14.8662 30.777 14.3438 30.5092 13.8834C30.2414 13.4231 29.858 13.0406 29.397 12.774Z" fill="#FFF19F"/>
<path d="M25.8077 15.5339L20.9171 12.7334C20.6309 12.5689 20.3064 12.4829 19.9764 12.484C19.6464 12.485 19.3224 12.5732 19.0373 12.7395L14.1648 15.5737C13.8802 15.7398 13.644 15.9776 13.4799 16.2633C13.3158 16.5491 13.2295 16.8729 13.2295 17.2024L13.2486 22.8404C13.2504 23.1706 13.3388 23.4946 13.505 23.78C13.6711 24.0654 13.9092 24.3022 14.1954 24.4668L19.0847 27.2667C19.371 27.4314 19.6957 27.5176 20.026 27.5167C20.3563 27.5158 20.6805 27.4276 20.9658 27.2613L25.8399 24.4263C26.1237 24.2589 26.3589 24.0203 26.5221 23.734C26.6853 23.4478 26.7709 23.1239 26.7705 22.7944L26.7514 17.1565C26.749 16.8273 26.6608 16.5044 26.4953 16.2198C26.3298 15.9352 26.0927 15.6987 25.8077 15.5339Z" fill="#FFDD0F"/>
<path d="M23.5897 17.2396L20.567 15.5089C20.3902 15.4072 20.1897 15.354 19.9857 15.3547C19.7817 15.3553 19.5816 15.4098 19.4054 15.5126L16.3944 17.2644C16.2185 17.367 16.0726 17.514 15.9712 17.6906C15.8698 17.8672 15.8164 18.0673 15.8164 18.2709L15.8282 21.7555C15.8295 21.9595 15.8841 22.1596 15.9868 22.336C16.0895 22.5123 16.2366 22.6586 16.4135 22.7604L19.4352 24.4906C19.6121 24.5924 19.8128 24.6458 20.0169 24.6452C20.2211 24.6446 20.4214 24.5902 20.5978 24.4874L23.6103 22.7352C23.7856 22.6318 23.9309 22.4844 24.0317 22.3076C24.1326 22.1307 24.1856 21.9307 24.1855 21.7271L24.1736 18.2425C24.1721 18.039 24.1174 17.8394 24.015 17.6635C23.9126 17.4876 23.766 17.3415 23.5897 17.2396Z" fill="#FFDD0F"/>
<path d="M53.7779 12.6909L45.8648 8.15989C45.4018 7.89374 44.8768 7.75448 44.3428 7.75618C43.8088 7.75788 43.2847 7.90048 42.8234 8.16957L34.9394 12.7554C34.479 13.0242 34.097 13.4089 33.8315 13.8713C33.566 14.3337 33.4263 14.8575 33.4263 15.3907L33.4572 24.5128C33.4604 25.047 33.6035 25.571 33.8724 26.0326C34.1413 26.4942 34.5265 26.8772 34.9896 27.1435L42.9004 31.6734C43.3636 31.9399 43.889 32.0795 44.4234 32.078C44.9578 32.0765 45.4823 31.934 45.944 31.6648L53.8302 27.0778C54.2892 26.807 54.6695 26.421 54.9335 25.9582C55.1976 25.4953 55.3362 24.9715 55.3357 24.4386L55.3047 15.3165C55.301 14.7838 55.1581 14.2613 54.8903 13.8007C54.6225 13.3402 54.239 12.9576 53.7779 12.6909Z" fill="#FFF19F"/>
<path d="M50.1881 15.4509L45.2976 12.6505C45.0114 12.4861 44.6869 12.4 44.3569 12.4011C44.0269 12.4021 43.7029 12.4903 43.4178 12.6566L38.5452 15.4908C38.2606 15.6569 38.0245 15.8947 37.8604 16.1805C37.6963 16.4663 37.6099 16.79 37.6099 17.1196L37.6291 22.7574C37.6309 23.0876 37.7193 23.4116 37.8855 23.697C38.0516 23.9824 38.2897 24.2192 38.5759 24.3838L43.4652 27.1835C43.7514 27.3483 44.0761 27.4346 44.4064 27.4337C44.7367 27.4327 45.0609 27.3447 45.3462 27.1783L50.2202 24.3433C50.5039 24.1759 50.7391 23.9374 50.9023 23.6513C51.0655 23.3652 51.1512 23.0415 51.1508 22.7121L51.1317 17.0741C51.1295 16.7448 51.0413 16.4218 50.8758 16.1371C50.7102 15.8523 50.4732 15.6158 50.1881 15.4509Z" fill="#FFEB6F"/>
<path d="M4.63527 12.8579L-3.27783 8.32675C-3.7408 8.06062 -4.26581 7.92139 -4.79982 7.92311C-5.33383 7.92483 -5.85794 8.06745 -6.31919 8.33657L-14.2031 12.9223C-14.6635 13.191 -15.0455 13.5756 -15.311 14.0379C-15.5764 14.5001 -15.7162 15.0238 -15.7163 15.5569L-15.6854 24.6791C-15.6822 25.2133 -15.539 25.7373 -15.2701 26.1988C-15.0013 26.6604 -14.6161 27.0434 -14.153 27.3097L-6.24217 31.8396C-5.77896 32.1061 -5.25361 32.2457 -4.71919 32.2442C-4.18477 32.2427 -3.66023 32.1001 -3.19854 31.831L4.68758 27.2441C5.14657 26.9733 5.52688 26.5873 5.79093 26.1244C6.05498 25.6615 6.19361 25.1377 6.19307 24.6048L6.16216 15.4827C6.15828 14.9501 6.01535 14.4277 5.74754 13.9674C5.47974 13.507 5.09632 13.1245 4.63527 12.8579Z" fill="#FFF19F"/>
<path d="M1.04602 15.6178L-3.84455 12.8175C-4.13067 12.6529 -4.45514 12.5668 -4.78519 12.5679C-5.11524 12.5689 -5.43917 12.6571 -5.72425 12.8234L-10.5969 15.6576C-10.8815 15.8237 -11.1177 16.0615 -11.2818 16.3473C-11.4459 16.6331 -11.5322 16.9568 -11.5322 17.2864L-11.513 22.9243C-11.5112 23.2545 -11.4228 23.5785 -11.2567 23.8639C-11.0905 24.1493 -10.8524 24.3861 -10.5662 24.5508L-5.67696 27.3506C-5.39068 27.5153 -5.06598 27.6015 -4.7357 27.6006C-4.40541 27.5997 -4.08122 27.5116 -3.79588 27.3452L1.07815 24.5102C1.36184 24.3429 1.59691 24.1044 1.76012 23.8183C1.92334 23.5322 2.00902 23.2085 2.00871 22.8791L1.98965 17.2412C1.98745 16.9118 1.89922 16.5888 1.73371 16.304C1.56819 16.0193 1.33113 15.7827 1.04602 15.6178Z" fill="#FFEB6F"/>
<path d="M41.5305 -8.94018L33.6175 -13.4716C33.1546 -13.7378 32.6296 -13.877 32.0955 -13.8753C31.5615 -13.8736 31.0374 -13.7309 30.5762 -13.4618L22.6922 -8.87606C22.2318 -8.60737 21.8499 -8.22275 21.5843 -7.7605C21.3188 -7.29826 21.1791 -6.77452 21.179 -6.24145L21.21 2.88062C21.2132 3.41481 21.3563 3.93883 21.6252 4.40043C21.8941 4.86202 22.2793 5.24506 22.7424 5.51134L30.6532 10.0413C31.1164 10.3078 31.6418 10.4474 32.1762 10.4459C32.7106 10.4444 33.2352 10.3018 33.6969 10.0327L41.5829 5.44561C42.0419 5.17483 42.4222 4.7889 42.6863 4.32601C42.9503 3.86313 43.089 3.33932 43.0884 2.80643L43.0575 -6.31565C43.0536 -6.84821 42.9106 -7.37049 42.6427 -7.83082C42.3749 -8.29115 41.9915 -8.67355 41.5305 -8.94018Z" fill="#FFF19F"/>
<path d="M37.9415 -6.18L33.0508 -8.98049C32.7647 -9.14498 32.4403 -9.23103 32.1102 -9.22997C31.7802 -9.22891 31.4563 -9.14076 31.1713 -8.97444L26.2986 -6.14022C26.0139 -5.97414 25.7778 -5.73636 25.6137 -5.45058C25.4496 -5.1648 25.3632 -4.84101 25.3633 -4.51146L25.3823 1.12647C25.3842 1.4567 25.4726 1.78066 25.6387 2.06605C25.8049 2.35144 26.043 2.58828 26.3292 2.75294L31.2186 5.55262C31.5048 5.71741 31.8295 5.80371 32.1598 5.80279C32.4901 5.80187 32.8143 5.71377 33.0996 5.54738L37.9737 2.71235C38.2574 2.54502 38.4925 2.3065 38.6557 2.0204C38.8189 1.73431 38.9046 1.41055 38.9043 1.08117L38.8852 -4.55663C38.883 -4.88598 38.7947 -5.20905 38.6292 -5.4938C38.4637 -5.77856 38.2267 -6.01511 37.9415 -6.18Z" fill="#FFEB6F"/>
<path d="M13.2084 -6.18L8.31767 -8.98049C8.03156 -9.14498 7.70709 -9.23103 7.37707 -9.22997C7.04704 -9.22891 6.72316 -9.14076 6.4381 -8.97444L1.56542 -6.14022C1.28078 -5.97414 1.04463 -5.73636 0.880522 -5.45058C0.716418 -5.1648 0.630092 -4.84101 0.630127 -4.51146L0.649194 1.12647C0.651044 1.4567 0.739454 1.78066 0.905594 2.06605C1.07173 2.35144 1.30982 2.58828 1.59607 2.75294L6.48543 5.55262C6.77168 5.71741 7.09636 5.80371 7.42665 5.80279C7.75695 5.80187 8.08114 5.71377 8.36647 5.54738L13.2405 2.71235C13.5242 2.54502 13.7593 2.3065 13.9225 2.0204C14.0857 1.73431 14.1714 1.41055 14.1711 1.08117L14.152 -4.55663C14.1498 -4.88598 14.0616 -5.20905 13.8961 -5.4938C13.7305 -5.77856 13.4935 -6.01511 13.2084 -6.18Z" fill="#FFDD0F"/>
<path d="M16.7224 -8.85623L8.8093 -13.3872C8.34636 -13.6534 7.82137 -13.7927 7.28737 -13.7909C6.75337 -13.7892 6.22928 -13.6466 5.76807 -13.3774L-2.11585 -8.79171C-2.57625 -8.52301 -2.95822 -8.13839 -3.22373 -7.67615C-3.48923 -7.2139 -3.62902 -6.69017 -3.62915 -6.1571L-3.59824 2.96498C-3.59506 3.49916 -3.45188 4.02318 -3.183 4.48477C-2.91413 4.94637 -2.52893 5.3294 -2.06584 5.59569L5.84496 10.1256C6.30817 10.3922 6.83352 10.5317 7.36794 10.5302C7.90236 10.5287 8.42692 10.3862 8.88862 10.117L16.7747 5.52996C17.2337 5.25921 17.6141 4.87329 17.8781 4.4104C18.1422 3.94751 18.2808 3.42369 18.2802 2.89078L18.2493 -6.2313C18.2455 -6.76392 18.1026 -7.2863 17.8348 -7.74671C17.567 -8.20712 17.1835 -8.58959 16.7224 -8.85623Z" fill="#FFF19F"/>
<path d="M41.5305 34.4881L33.6175 29.9571C33.1546 29.6909 32.6296 29.5516 32.0955 29.5534C31.5615 29.5551 31.0374 29.6977 30.5762 29.9669L22.6922 34.5526C22.2317 34.8213 21.8497 35.2061 21.5842 35.6684C21.3187 36.1308 21.179 36.6547 21.179 37.1879L21.21 46.3099C21.2132 46.8441 21.3563 47.3682 21.6252 47.8297C21.8941 48.2913 22.2793 48.6744 22.7424 48.9407L30.6532 53.4706C31.1164 53.7371 31.6418 53.8767 32.1762 53.8752C32.7106 53.8737 33.2352 53.7311 33.6969 53.462L41.5829 48.8749C42.0419 48.6042 42.4223 48.2182 42.6863 47.7554C42.9504 47.2925 43.089 46.7686 43.0884 46.2357L43.0575 37.1137C43.0537 36.5809 42.9108 36.0584 42.643 35.5979C42.3752 35.1374 41.9917 34.7548 41.5305 34.4881Z" fill="#FFF19F"/>
<path d="M37.9415 37.1921L33.0508 34.3923C32.7647 34.2278 32.4403 34.1418 32.1102 34.1428C31.7802 34.1439 31.4563 34.232 31.1713 34.3984L26.2986 37.2326C26.0139 37.3987 25.7778 37.6364 25.6137 37.9222C25.4496 38.208 25.3632 38.5318 25.3633 38.8613L25.3823 44.4993C25.3843 44.8294 25.4728 45.1532 25.6389 45.4385C25.805 45.7237 26.0431 45.9605 26.3292 46.1251L31.2186 48.9247C31.5048 49.0895 31.8295 49.1758 32.1598 49.1749C32.4901 49.174 32.8143 49.0859 33.0996 48.9195L37.9737 46.0845C38.2574 45.9171 38.4925 45.6786 38.6557 45.3925C38.8189 45.1064 38.9046 44.7827 38.9043 44.4533L38.8852 38.8155C38.883 38.4862 38.7947 38.1631 38.6292 37.8783C38.4637 37.5936 38.2267 37.357 37.9415 37.1921Z" fill="#FFEB6F"/>
<path d="M13.1796 37.2483L8.28903 34.4485C8.00288 34.284 7.6784 34.198 7.34836 34.199C7.01831 34.2001 6.69438 34.2882 6.4093 34.4546L1.53661 37.2888C1.25202 37.4549 1.01591 37.6927 0.851812 37.9785C0.687714 38.2642 0.601351 38.588 0.601318 38.9175L0.620549 44.5555C0.622477 44.8856 0.71091 45.2094 0.877048 45.4947C1.04319 45.78 1.28121 46.0167 1.56739 46.1813L6.45662 48.9809C6.74287 49.1457 7.06755 49.232 7.39785 49.2311C7.72814 49.2302 8.05233 49.1421 8.33766 48.9757L13.2117 46.1407C13.4954 45.9733 13.7305 45.7348 13.8937 45.4487C14.057 45.1626 14.1427 44.8389 14.1424 44.5095L14.1236 38.8709C14.1213 38.5416 14.0329 38.2187 13.8673 37.9341C13.7017 37.6495 13.4646 37.4131 13.1796 37.2483Z" fill="#FFDD0F"/>
<path d="M16.7688 34.5719L8.85569 30.0409C8.39275 29.7748 7.86776 29.6355 7.33376 29.6372C6.79976 29.6389 6.27567 29.7816 5.81446 30.0507L-2.06947 34.6364C-2.52996 34.9052 -2.91199 35.2899 -3.1775 35.7523C-3.44302 36.2147 -3.58275 36.7386 -3.58276 37.2717L-3.55185 46.3938C-3.54867 46.928 -3.40549 47.452 -3.13661 47.9136C-2.86774 48.3752 -2.48254 48.7582 -2.01945 49.0245L5.89135 53.5544C6.35456 53.821 6.87991 53.9606 7.41433 53.959C7.94875 53.9575 8.47331 53.815 8.93501 53.5458L16.8211 48.9588C17.2801 48.6881 17.6605 48.3021 17.9245 47.8392C18.1886 47.3763 18.3272 46.8525 18.3266 46.3196L18.2957 37.1975C18.292 36.6648 18.1491 36.1423 17.8813 35.6817C17.6135 35.2212 17.23 34.8386 16.7688 34.5719Z" fill="#FFF19F"/>
<path d="M13.1161 -6.18L8.22539 -8.98049C7.93927 -9.14498 7.61481 -9.23103 7.28478 -9.22997C6.95476 -9.22891 6.63087 -9.14076 6.34582 -8.97444L1.47313 -6.14022C1.18849 -5.97414 0.952341 -5.73636 0.788237 -5.45058C0.624132 -5.1648 0.537807 -4.84101 0.537842 -4.51146L0.556909 1.12647C0.558759 1.4567 0.647169 1.78066 0.813309 2.06605C0.979449 2.35144 1.21754 2.58828 1.50378 2.75294L6.39314 5.55262C6.67939 5.71741 7.00407 5.80371 7.33437 5.80279C7.66467 5.80187 7.98886 5.71377 8.27419 5.54738L13.1482 2.71235C13.4319 2.54502 13.667 2.3065 13.8302 2.0204C13.9934 1.73431 14.0791 1.41055 14.0788 1.08117L14.0597 -4.55663C14.0575 -4.88598 13.9693 -5.20905 13.8038 -5.4938C13.6383 -5.77856 13.4012 -6.01511 13.1161 -6.18Z" fill="#FFEB6F"/>
<path d="M13.1161 37.136L8.22539 34.3355C7.93927 34.171 7.61481 34.0849 7.28478 34.086C6.95476 34.0871 6.63087 34.1752 6.34582 34.3415L1.47313 37.1758C1.18849 37.3418 0.952341 37.5796 0.788237 37.8654C0.624132 38.1512 0.537807 38.475 0.537842 38.8045L0.556909 44.4425C0.558759 44.7727 0.647169 45.0966 0.813309 45.382C0.979449 45.6674 1.21754 45.9043 1.50378 46.0689L6.39314 48.8686C6.67939 49.0334 7.00407 49.1197 7.33437 49.1188C7.66467 49.1178 7.98886 49.0297 8.27419 48.8634L13.1482 46.0283C13.4319 45.861 13.667 45.6225 13.8302 45.3364C13.9934 45.0503 14.0791 44.7265 14.0788 44.3972L14.0597 38.7594C14.0575 38.43 13.9693 38.1069 13.8038 37.8222C13.6383 37.5374 13.4012 37.3009 13.1161 37.136Z" fill="#FFEB6F"/>
</g>
<defs>
<clipPath id="clip0_451:49354">
<path d="M0 20C0 8.95431 8.95431 0 20 0C31.0457 0 40 8.95431 40 20C40 31.0457 31.0457 40 20 40C8.95431 40 0 31.0457 0 20Z" fill="white"/>
</clipPath>
</defs>
</svg>

<svg width="40" height="40" fill="none" xmlns="http://www.w3.org/2000/svg"><g clip-path="url(#a)"><circle cx="20" cy="20" r="20" fill="#fff"/><path d="m29.397 12.774-7.913-4.531a3.035 3.035 0 0 0-3.041.01l-7.884 4.585a3.05 3.05 0 0 0-1.514 2.635l.031 9.122a3.056 3.056 0 0 0 1.533 2.63l7.91 4.53a3.037 3.037 0 0 0 3.044-.008l7.886-4.587a3.06 3.06 0 0 0 1.506-2.64l-.031-9.121a3.057 3.057 0 0 0-1.527-2.625Z" fill="#FFF19F"/><path d="m25.808 15.534-4.89-2.8a1.875 1.875 0 0 0-1.88.005l-4.873 2.835a1.886 1.886 0 0 0-.935 1.628l.019 5.638a1.888 1.888 0 0 0 .946 1.627l4.89 2.8a1.877 1.877 0 0 0 1.88-.006l4.875-2.835a1.891 1.891 0 0 0 .93-1.632l-.019-5.637a1.89 1.89 0 0 0-.943-1.623Z" fill="#FFDD0F"/><path d="m23.59 17.24-3.023-1.731a1.158 1.158 0 0 0-1.162.004l-3.01 1.751a1.165 1.165 0 0 0-.579 1.007l.012 3.485a1.168 1.168 0 0 0 .585 1.004l3.022 1.73a1.16 1.16 0 0 0 1.163-.003l3.012-1.752a1.168 1.168 0 0 0 .576-1.008l-.012-3.485a1.168 1.168 0 0 0-.584-1.002Z" fill="#FFDD0F"/><path d="m53.778 12.69-7.913-4.53a3.035 3.035 0 0 0-3.042.01l-7.884 4.585a3.052 3.052 0 0 0-1.513 2.636l.031 9.122a3.056 3.056 0 0 0 1.533 2.63l7.91 4.53a3.037 3.037 0 0 0 3.044-.008l7.886-4.587a3.06 3.06 0 0 0 1.506-2.64l-.031-9.121a3.058 3.058 0 0 0-1.527-2.626Z" fill="#FFF19F"/><path d="m50.188 15.45-4.89-2.8a1.876 1.876 0 0 0-1.88.007l-4.873 2.834a1.886 1.886 0 0 0-.935 1.629l.02 5.637a1.888 1.888 0 0 0 .946 1.627l4.89 2.8a1.876 1.876 0 0 0 1.88-.006l4.874-2.835a1.892 1.892 0 0 0 .93-1.63l-.018-5.639a1.89 1.89 0 0 0-.944-1.623Z" fill="#FFEB6F"/><path d="m4.635 12.858-7.913-4.531a3.034 3.034 0 0 0-3.041.01l-7.884 4.585a3.051 3.051 0 0 0-1.513 2.635l.03 9.122a3.055 3.055 0 0 0 1.533 2.63l7.91 4.53a3.037 3.037 0 0 0 3.044-.008l7.887-4.587a3.061 3.061 0 0 0 1.505-2.64l-.03-9.121a3.058 3.058 0 0 0-1.528-2.625Z" fill="#FFF19F"/><path d="m1.046 15.618-4.89-2.8a1.874 1.874 0 0 0-1.88.005l-4.873 2.835a1.886 1.886 0 0 0-.935 1.628l.019 5.638a1.889 1.889 0 0 0 .947 1.627l4.889 2.8a1.877 1.877 0 0 0 1.881-.006l4.874-2.835a1.891 1.891 0 0 0 .93-1.63L1.99 17.24a1.89 1.89 0 0 0-.944-1.623Z" fill="#FFEB6F"/><path d="m41.53-8.94-7.913-4.532a3.034 3.034 0 0 0-3.04.01l-7.885 4.586a3.052 3.052 0 0 0-1.513 2.635l.031 9.122a3.056 3.056 0 0 0 1.532 2.63l7.911 4.53a3.037 3.037 0 0 0 3.044-.008l7.886-4.587a3.061 3.061 0 0 0 1.505-2.64l-.03-9.122A3.057 3.057 0 0 0 41.53-8.94Z" fill="#FFF19F"/><path d="m37.941-6.18-4.89-2.8a1.875 1.875 0 0 0-1.88.006L26.3-6.14a1.885 1.885 0 0 0-.936 1.629l.02 5.637a1.89 1.89 0 0 0 .946 1.627l4.89 2.8a1.876 1.876 0 0 0 1.88-.006l4.875-2.835a1.891 1.891 0 0 0 .93-1.63l-.019-5.639a1.89 1.89 0 0 0-.944-1.623Z" fill="#FFEB6F"/><path d="m13.208-6.18-4.89-2.8a1.875 1.875 0 0 0-1.88.006L1.565-6.14A1.886 1.886 0 0 0 .63-4.511l.02 5.637a1.889 1.889 0 0 0 .946 1.627l4.89 2.8a1.876 1.876 0 0 0 1.88-.006l4.875-2.835a1.891 1.891 0 0 0 .93-1.63l-.019-5.639a1.89 1.89 0 0 0-.944-1.623Z" fill="#FFDD0F"/><path d="M16.722-8.856 8.81-13.387a3.033 3.033 0 0 0-3.04.01l-7.885 4.585a3.051 3.051 0 0 0-1.513 2.635l.03 9.122a3.056 3.056 0 0 0 1.533 2.63l7.911 4.53a3.036 3.036 0 0 0 3.044-.008l7.886-4.587a3.06 3.06 0 0 0 1.505-2.64l-.03-9.121a3.057 3.057 0 0 0-1.528-2.625ZM41.53 34.488l-7.913-4.53a3.033 3.033 0 0 0-3.04.009l-7.885 4.586a3.051 3.051 0 0 0-1.513 2.635l.031 9.122a3.055 3.055 0 0 0 1.532 2.63l7.911 4.53a3.037 3.037 0 0 0 3.044-.008l7.886-4.587a3.06 3.06 0 0 0 1.505-2.64l-.03-9.121a3.059 3.059 0 0 0-1.527-2.626Z" fill="#FFF19F"/><path d="m37.941 37.192-4.89-2.8a1.875 1.875 0 0 0-1.88.006L26.3 37.233a1.885 1.885 0 0 0-.936 1.628l.02 5.638a1.89 1.89 0 0 0 .946 1.626l4.89 2.8a1.876 1.876 0 0 0 1.88-.005l4.875-2.836a1.892 1.892 0 0 0 .93-1.63l-.019-5.639a1.89 1.89 0 0 0-.944-1.623Z" fill="#FFEB6F"/><path d="m13.18 37.248-4.891-2.8a1.876 1.876 0 0 0-1.88.007l-4.872 2.834A1.886 1.886 0 0 0 .6 38.917l.02 5.639a1.888 1.888 0 0 0 .946 1.625l4.89 2.8a1.876 1.876 0 0 0 1.88-.005l4.875-2.835a1.892 1.892 0 0 0 .93-1.631l-.018-5.64a1.889 1.889 0 0 0-.944-1.622Z" fill="#FFDD0F"/><path d="M16.769 34.572 8.856 30.04a3.035 3.035 0 0 0-3.042.01l-7.883 4.585a3.052 3.052 0 0 0-1.514 2.636l.031 9.122a3.056 3.056 0 0 0 1.533 2.63l7.91 4.53a3.035 3.035 0 0 0 3.044-.008l7.886-4.587a3.06 3.06 0 0 0 1.506-2.64l-.031-9.122a3.058 3.058 0 0 0-1.527-2.625Z" fill="#FFF19F"/><path d="m13.116-6.18-4.89-2.8a1.875 1.875 0 0 0-1.88.006L1.473-6.14a1.886 1.886 0 0 0-.935 1.629l.019 5.637a1.889 1.889 0 0 0 .947 1.627l4.89 2.8a1.876 1.876 0 0 0 1.88-.006l4.874-2.835a1.891 1.891 0 0 0 .93-1.63l-.018-5.639a1.89 1.89 0 0 0-.944-1.623ZM13.116 37.136l-4.89-2.8a1.875 1.875 0 0 0-1.88.006l-4.873 2.834a1.885 1.885 0 0 0-.935 1.628l.019 5.639a1.888 1.888 0 0 0 .947 1.626l4.89 2.8a1.876 1.876 0 0 0 1.88-.006l4.874-2.835a1.891 1.891 0 0 0 .93-1.63l-.018-5.639a1.89 1.89 0 0 0-.944-1.623Z" fill="#FFEB6F"/></g><defs><clipPath id="a"><path d="M0 20C0 8.954 8.954 0 20 0s20 8.954 20 20-8.954 20-20 20S0 31.046 0 20Z" fill="#fff"/></clipPath></defs></svg>
